X:21026 
T:CHICAGO REEL, The  
B:DMI.0797
Z:Nordberg/Black
N:Single in DMI
R:reel
%Q:1/4=180
M:C|
L:1/8
K:G
"A dorian"
AB|c2ed cAGE|GFGA GAcd|ecgc acgc|edcd efge|
c2ed c2AF|GFGA GBcd|eaag efdB|cABG A2 :|
AB|cdef g2ef|gage dBGB|cdef gagf|baag aged|
cdef g2fg|abaf gbag|fefd efed|cABG A2 :|


%%%

